!!!COM:	Josquin des Pres?
**kern	**kern
*part2	*part1
*staff2	*staff1
*clefGv2	*clefG2
*k[]	*k[]
*M2/1	*M2/1
=1-	=1-
0c	0cc
=2	=2
1G	1b
1A	1cc
=3	=3
1B	1.dd
1G	.
.	2cc
=4	=4
2A	1a
1c	.
.	[1g
2B	.
=5	=5
0c	1g]
.	1e
=6	=6
0r	1f
.	1g
=7	=7
[0e	1c
.	[1g
=8	=8
0e]	2g]
.	2a
.	2b
.	[2cc
=9	=9
0f	4cc]
.	4b
.	4a
.	4g
.	1a
=10	=10
1g	1b-X
2f	2a
[2e	[2g
=11	=11
2e]	2g]
4d	4f
4c	4e
2d	2f
[2e	[2g
=12	=12
2e]	2g]
4d	4f
4c	4e
2.B	1d
4A	.
=13	=13
[0c	1c
.	1r
=14	=14
0c]	1g
.	1a
=15	=15
1G	1g
1A	1cc
=16	=16
1G	2dd
.	1ee
1c	.
.	4dd
.	4cc
=17	=17
2d	1b
1e	.
.	1ee
4d	.
4c	.
=18	=18
1B	1dd
1e	1cc
=19	=19
1d	1ff
1c	2ee
.	[2cc
=20	=20
1f	2cc]
.	1dd
2e	.
[2c	4cc
.	4b
=21	=21
2c]	1a
1d	.
.	2b
2c	[2cc
=22	=22
1A	2cc]
.	4b
.	4a
2B	1g
[2c	.
=23	=23
2c]	1cc
4B	.
4A	.
1G	2dd
.	[2ee
=24	=24
1c	4ee]
.	4dd
.	2ee
2d	2ff
[2e	2gg
=25	=25
4e]	1ee
4d	.
2e	.
2f	2dd
2g	[2ee
=26	=26
1c	4ee]
.	4dd
.	1cc
1d	.
.	2b
=27	=27
0c	0cc
==	==
*-	*-
